X:1
T:silent night
T:silent night
%%score { 1 | 2 }
L:1/8
M:3/4
K:G
V:1 treble-8 nm="Guitar" snm="Guit."
V:2 tab stafflines=6 strings=E2,A2,D3,G3,B3,E4 nostems 
V:1
 G,4 B,2 | C3 B, A,2 | F,3 G, A,2 | G,6 | F4 F2 | D6 | B,4 B,2 | G,6 | C4 C2 | E3 D C2 | %10
 B,3 C B,2 | G,6 | C4 C2 | E3 D C2 | B,3 C B,2 | G,6 | F4 F2 | A3 F D2 | E6 | G6 | B,2 G,2 B,2 | %21
 D6 | z6 | z6 | z6 | z6 | z6 | z6 | z6 | z6 | z6 | z6 |] %32
V:2
 !6!G,,4 !5!B,,2 | !5!C,3 !5!B,, !5!A,,2 | !6!F,,3 !6!G,, !5!A,,2 | !6!G,,6 | !4!F,4 !4!F,2 | %5
 !4!D,6 | !5!B,,4 !5!B,,2 | !6!G,,6 | !5!C,4 !5!C,2 | !4!E,3 !4!D, !5!C,2 | !5!B,,3 !5!C, !5!B,,2 | %11
 !6!G,,6 | !5!C,4 !5!C,2 | !4!E,3 !4!D, !5!C,2 | !5!B,,3 !5!C, !5!B,,2 | !6!G,,6 | !4!F,4 !4!F,2 | %17
 !3!A,3 !4!F, !4!D,2 | !4!E,6 | !3!G,6 | !5!B,,2 !6!G,,2 !5!B,,2 | !4!D,6 | x6 | x6 | x6 | x6 | %26
 x6 | x6 | x6 | x6 | x6 | x6 |] %32

